; generated by PrusaSlicer 2.4.2+win64 on 2022-07-13 at 19:25:47 UTC


;
;
; 

; external perimeters extrusion width = 0.45mm
; perimeters extrusion width = 0.45mm
; infill extrusion width = 0.45mm
; solid infill extrusion width = 0.45mm
; top infill extrusion width = 0.40mm
; first layer extrusion width = 0.42mm

M73 P0 R91
M73 Q0 S92
M201 X1000 Y1000 Z200 E5000 ; sets maximum accelerations, mm/sec^2
M203 X200 Y200 Z12 E120 ; sets maximum feedrates, mm / sec
M204 P1250 R1250 T1250 ; sets acceleration (P, T) and retract acceleration (R), mm/sec^2
M205 X8.00 Y8.00 Z0.40 E4.50 ; sets the jerk limits, mm/sec
M205 S0 T0 ; sets the minimum extruding and travel feed rate, mm/sec
M107
;TYPE:Custom
M862.3 P "MK3S" ; printer model check
M862.1 P0.4 ; nozzle diameter check
M115 U3.11.0 ; tell printer latest fw version
G90 ; use absolute coordinates
M83 ; extruder relative mode
M104 S240 ; set extruder temp
M140 S85 ; set bed temp
M190 S85 ; wait for bed temp
M109 S240 ; wait for extruder temp
G28 W ; home all without mesh bed level
G80 ; mesh bed leveling
G1 Z0.2 F720
G1 Y-3 F1000 ; go outside print area
G92 E0
G1 X60 E9 F1000 ; intro line
G1 X100 E12.5 F1000 ; intro line
G92 E0
M221 S95

; Don't change E values below. Excessive value can damage the printer.
M907 E430 ; set extruder motor current
G21 ; set units to millimeters
G90 ; use absolute coordinates
M83 ; use relative distances for extrusion
M900 K0.08 ; Filament gcode LA 1.5
M900 K45 ; Filament gcode LA 1.0
M107
;LAYER_CHANGE
;Z:0.2
;HEIGHT:0.2
;BEFORE_LAYER_CHANGE
G92 E0.0
;0.2


G1 E-1 F2100
G1 Z.2 F720
;AFTER_LAYER_CHANGE
;0.2
G1 Z.4
G1 X18.152 Y75.423 F10800
G1 Z.2 F720
G1 E1 F2100
M204 S800
;TYPE:Skirt/Brim
;WIDTH:0.42
G1 F1200
G1 X102.329 Y75.448 E2.6393
G1 X237.844 Y95.24 E4.29404
G1 X239.08 Y95.816 E.04278
G1 X239.877 Y97.592 E.06103
G1 X239.877 Y112.408 E.46456
G1 X239.485 Y113.715 E.04278
G1 X237.844 Y114.76 E.06103
G1 X102.329 Y134.552 E4.29404
G1 X18.152 Y134.577 E2.6393
G1 X16.472 Y133.881 E.05704
M73 Q0 S91
G1 X12.394 Y129.803 E.1808
G1 X11.698 Y128.123 E.05704
G1 X11.698 Y81.877 E1.44999
G1 X12.394 Y80.197 E.05704
G1 X16.472 Y76.119 E.1808
G1 X18.097 Y75.446 E.05516
M204 S1000
; printing object Cover.stl id:0 copy 0
;WIPE_START
G1 F8640
G1 X22.211 Y75.446 E-.95
;WIPE_END
G1 E-.05 F2100
G1 Z.4 F720
G1 X95.795 Y123.924 F10800
G1 Z.2 F720
G1 E1 F2100
M204 S800
;TYPE:Perimeter
G1 F1200
G1 X96.417 Y123.092 E.03256
G1 X97.203 Y122.489 E.03105
G1 X98.118 Y122.11 E.03105
G1 X99.1 Y121.981 E.03105
G1 X100.082 Y122.11 E.03105
G1 X100.997 Y122.489 E.03105
G1 X101.783 Y123.092 E.03105
G1 X102.386 Y123.878 E.03105
G1 X102.765 Y124.793 E.03105
G1 X102.894 Y125.775 E.03105
G1 X102.765 Y126.757 E.03105
G1 X102.386 Y127.672 E.03105
G1 X101.783 Y128.458 E.03105
G1 X100.997 Y129.061 E.03105
G1 X100.082 Y129.44 E.03105
G1 X99.1 Y129.569 E.03105
G1 X98.118 Y129.44 E.03105
G1 X97.203 Y129.061 E.03105
G1 X96.417 Y128.458 E.03105
G1 X95.814 Y127.672 E.03105
G1 X95.435 Y126.757 E.03105
G1 X95.306 Y125.775 E.03105
G1 X95.435 Y124.793 E.03105
G1 X95.772 Y123.979 E.02762
M204 S1000
G1 X96.144 Y124.068 F10800
M204 S800
;TYPE:External perimeter
G1 F1200
G1 X96.686 Y123.361 E.02794
G1 X97.393 Y122.819 E.02794
G1 X98.217 Y122.478 E.02794
G1 X99.1 Y122.361 E.02794
G1 X99.983 Y122.478 E.02794
G1 X100.807 Y122.819 E.02794
G1 X101.514 Y123.361 E.02794
G1 X102.056 Y124.068 E.02794
G1 X102.397 Y124.892 E.02794
G1 X102.514 Y125.775 E.02794
G1 X102.397 Y126.658 E.02794
G1 X102.056 Y127.482 E.02794
G1 X101.514 Y128.189 E.02794
G1 X100.807 Y128.731 E.02794
G1 X99.983 Y129.072 E.02794
G1 X99.1 Y129.189 E.02794
G1 X98.217 Y129.072 E.02794
G1 X97.393 Y128.731 E.02794
G1 X96.686 Y128.189 E.02794
G1 X96.144 Y127.482 E.02794
G1 X95.803 Y126.658 E.02794
G1 X95.686 Y125.775 E.02794
G1 X95.803 Y124.892 E.02794
G1 X96.121 Y124.124 E.02606
M204 S1000
G1 X95.944 Y123.722 F10800
;WIPE_START
G1 F8640
G1 X96.686 Y123.361 E-.21917
G1 X97.393 Y122.819 E-.20576
G1 X98.217 Y122.478 E-.20576
G1 X99.1 Y122.361 E-.20576
G1 X99.588 Y122.426 E-.11355
;WIPE_END
G1 E-.05 F2100
G1 Z.4 F720
G1 X99.051 Y88.012 F10800
G1 Z.2 F720
G1 E1 F2100
M204 S800
;TYPE:Perimeter
G1 F1200
G1 X98.118 Y87.89 E.0295
G1 X97.203 Y87.511 E.03105
G1 X96.417 Y86.908 E.03105
G1 X95.814 Y86.122 E.03105
G1 X95.435 Y85.207 E.03105
G1 X95.306 Y84.225 E.03105
G1 X95.435 Y83.243 E.03105
G1 X95.814 Y82.328 E.03105
G1 X96.417 Y81.542 E.03105
G1 X97.203 Y80.939 E.03105
G1 X98.118 Y80.56 E.03105
G1 X99.1 Y80.431 E.03105
G1 X100.082 Y80.56 E.03105
G1 X100.997 Y80.939 E.03105
G1 X101.783 Y81.542 E.03105
G1 X102.386 Y82.328 E.03105
G1 X102.765 Y83.243 E.03105
G1 X102.894 Y84.225 E.03105
G1 X102.765 Y85.207 E.03105
G1 X102.386 Y86.122 E.03105
G1 X101.783 Y86.908 E.03105
G1 X100.997 Y87.511 E.03105
G1 X100.082 Y87.89 E.03105
G1 X99.11 Y88.018 E.03073
M204 S1000
G1 X99.1 Y87.639 F10800
M204 S800
;TYPE:External perimeter
G1 F1200
G1 X98.217 Y87.522 E.02794
G1 X97.393 Y87.181 E.02794
G1 X96.686 Y86.639 E.02794
G1 X96.144 Y85.932 E.02794
G1 X95.803 Y85.108 E.02794
G1 X95.686 Y84.225 E.02794
G1 X95.803 Y83.342 E.02794
G1 X96.144 Y82.518 E.02794
G1 X96.686 Y81.811 E.02794
G1 X97.393 Y81.269 E.02794
G1 X98.217 Y80.928 E.02794
G1 X99.1 Y80.811 E.02794
G1 X99.983 Y80.928 E.02794
G1 X100.807 Y81.269 E.02794
G1 X101.514 Y81.811 E.02794
G1 X102.056 Y82.518 E.02794
G1 X102.397 Y83.342 E.02794
G1 X102.514 Y84.225 E.02794
G1 X102.397 Y85.108 E.02794
G1 X102.056 Y85.932 E.02794
G1 X101.514 Y86.639 E.02794
G1 X100.807 Y87.181 E.02794
G1 X99.983 Y87.522 E.02794
G1 X99.159 Y87.631 E.02606
M204 S1000
G1 X98.9 Y87.985 F10800
;WIPE_START
G1 F8640
G1 X98.217 Y87.522 E-.21917
G1 X97.393 Y87.181 E-.20576
G1 X96.686 Y86.639 E-.20576
G1 X96.144 Y85.932 E-.20576
G1 X95.956 Y85.477 E-.11355
;WIPE_END
G1 E-.05 F2100
G1 Z.4 F720
G1 X94.292 Y88.187 F10800
G1 Z.2 F720
G1 E1 F2100
M204 S800
;TYPE:Perimeter
G1 F1200
G1 X94.437 Y89.455 E.04003
G1 X94.437 Y120.545 E.97478
G1 X94.284 Y121.891 E.04249
G1 X93.816 Y123.21 E.04388
G1 X93.122 Y124.314 E.04089
G1 X92.143 Y125.312 E.04381
G1 X90.962 Y126.065 E.04394
G1 X89.641 Y126.534 E.04395
G1 X88.295 Y126.687 E.04249
G1 X38.205 Y126.687 E1.57051
G1 X36.859 Y126.534 E.04249
G1 X35.54 Y126.066 E.04388
G1 X34.436 Y125.372 E.04089
G1 X33.438 Y124.393 E.04381
G1 X32.685 Y123.212 E.04394
G1 X32.216 Y121.891 E.04395
G1 X32.063 Y120.545 E.04249
G1 X32.063 Y89.455 E.97478
G1 X32.216 Y88.109 E.04249
G1 X32.685 Y86.788 E.04395
G1 X33.437 Y85.609 E.04385
G1 X34.359 Y84.687 E.04089
G1 X35.525 Y83.943 E.04337
G1 X36.86 Y83.466 E.04446
G1 X38.205 Y83.313 E.04245
G1 X88.295 Y83.313 E1.57051
G1 X89.641 Y83.466 E.04249
G1 X90.96 Y83.934 E.04388
G1 X92.064 Y84.628 E.04089
G1 X93.062 Y85.607 E.04381
G1 X93.815 Y86.788 E.04394
G1 X94.286 Y88.127 E.04451
M204 S1000
G1 X93.918 Y88.23 F10800
M204 S800
;TYPE:External perimeter
G1 F1200
G1 X94.06 Y89.477 E.03936
G1 X94.06 Y120.523 E.97344
G1 X93.914 Y121.805 E.04047
G1 X93.474 Y123.045 E.04123
G1 X92.824 Y124.079 E.0383
G1 X91.904 Y125.017 E.04119
G1 X90.795 Y125.724 E.04124
G1 X89.555 Y126.164 E.04125
G1 X88.273 Y126.31 E.04047
G1 X38.227 Y126.31 E1.56917
G1 X36.945 Y126.164 E.04047
M73 P0 R90
G1 X35.705 Y125.724 E.04123
G1 X34.671 Y125.074 E.0383
G1 X33.733 Y124.154 E.04119
M73 Q1 S91
G1 X33.026 Y123.045 E.04124
M73 P1 R90
G1 X32.586 Y121.805 E.04125
G1 X32.44 Y120.523 E.04047
G1 X32.44 Y89.477 E.97344
G1 X32.586 Y88.195 E.04047
G1 X33.026 Y86.955 E.04125
G1 X33.733 Y85.846 E.04121
G1 X34.596 Y84.983 E.0383
G1 X35.7 Y84.279 E.04104
G1 X36.945 Y83.836 E.04143
G1 X38.227 Y83.69 E.04045
G1 X88.273 Y83.69 E1.56917
G1 X89.555 Y83.836 E.04047
G1 X90.795 Y84.276 E.04123
G1 X91.829 Y84.926 E.0383
G1 X92.767 Y85.846 E.04119
G1 X93.474 Y86.955 E.04124
G1 X93.905 Y88.171 E.04048
M204 S1000
G1 X94.3 Y88.347 F10800
;WIPE_START
G1 F8640
G1 X94.06 Y89.477 E-.30356
G1 X94.06 Y92.276 E-.64644
;WIPE_END
G1 E-.05 F2100
G1 Z.4 F720
G1 X24.287 Y84.274 F10800
G1 Z.2 F720
G1 E1 F2100
M204 S800
;TYPE:Perimeter
G1 F1200
G1 X24.165 Y85.207 E.0295
G1 X23.786 Y86.122 E.03105
G1 X23.183 Y86.908 E.03105
G1 X22.397 Y87.511 E.03105
G1 X21.939 Y87.7 E.01553
G1 X21.482 Y87.89 E.01553
G1 X20.5 Y88.019 E.03105
G1 X19.518 Y87.89 E.03105
G1 X18.603 Y87.511 E.03105
G1 X17.817 Y86.908 E.03105
G1 X17.214 Y86.122 E.03105
G1 X16.835 Y85.207 E.03105
G1 X16.706 Y84.225 E.03105
G1 X16.835 Y83.243 E.03105
G1 X17.214 Y82.328 E.03105
G1 X17.817 Y81.542 E.03105
G1 X18.603 Y80.939 E.03105
G1 X19.518 Y80.56 E.03105
G1 X20.5 Y80.431 E.03105
G1 X21.482 Y80.56 E.03105
G1 X22.397 Y80.939 E.03105
G1 X23.183 Y81.542 E.03105
G1 X23.786 Y82.328 E.03105
G1 X24.165 Y83.243 E.03105
G1 X24.293 Y84.215 E.03073
M204 S1000
G1 X23.914 Y84.225 F10800
M204 S800
;TYPE:External perimeter
G1 F1200
G1 X23.797 Y85.108 E.02794
G1 X23.488 Y85.856 E.02537
G1 X23.456 Y85.932 E.00257
G1 X22.914 Y86.639 E.02794
G1 X22.207 Y87.181 E.02794
G1 X21.795 Y87.352 E.01397
G1 X21.383 Y87.522 E.01397
G1 X20.5 Y87.639 E.02794
G1 X19.617 Y87.522 E.02794
G1 X18.793 Y87.181 E.02794
G1 X18.086 Y86.639 E.02794
G1 X17.544 Y85.932 E.02794
G1 X17.203 Y85.108 E.02794
G1 X17.086 Y84.225 E.02794
G1 X17.203 Y83.342 E.02794
G1 X17.544 Y82.518 E.02794
G1 X18.086 Y81.811 E.02794
G1 X18.793 Y81.269 E.02794
G1 X19.617 Y80.928 E.02794
G1 X20.5 Y80.811 E.02794
G1 X21.383 Y80.928 E.02794
G1 X22.207 Y81.269 E.02794
G1 X22.914 Y81.811 E.02794
G1 X23.456 Y82.518 E.02794
G1 X23.797 Y83.342 E.02794
G1 X23.906 Y84.166 E.02606
M204 S1000
G1 X24.26 Y84.425 F10800
;WIPE_START
G1 F8640
G1 X23.797 Y85.108 E-.21917
G1 X23.488 Y85.856 E-.18687
G1 X23.456 Y85.932 E-.01889
G1 X22.914 Y86.639 E-.20576
G1 X22.207 Y87.181 E-.20576
G1 X21.795 Y87.352 E-.10288
G1 X21.752 Y87.369 E-.01067
;WIPE_END
G1 E-.05 F2100
G1 Z.4 F720
G1 X20.549 Y121.988 F10800
G1 Z.2 F720
G1 E1 F2100
M204 S800
;TYPE:Perimeter
G1 F1200
G1 X21.482 Y122.11 E.0295
G1 X22.397 Y122.489 E.03105
G1 X23.183 Y123.092 E.03105
G1 X23.786 Y123.878 E.03105
G1 X24.165 Y124.793 E.03105
G1 X24.294 Y125.775 E.03105
G1 X24.165 Y126.757 E.03105
G1 X23.836 Y127.55 E.02693
G1 X23.786 Y127.672 E.00412
G1 X23.183 Y128.458 E.03105
G1 X22.397 Y129.061 E.03105
G1 X21.939 Y129.25 E.01553
G1 X21.482 Y129.44 E.01553
G1 X20.5 Y129.569 E.03105
G1 X19.518 Y129.44 E.03105
G1 X19.061 Y129.25 E.01553
G1 X18.603 Y129.061 E.01553
G1 X17.817 Y128.458 E.03105
G1 X17.214 Y127.672 E.03105
G1 X16.835 Y126.757 E.03105
G1 X16.706 Y125.775 E.03105
G1 X16.835 Y124.793 E.03105
G1 X17.214 Y123.878 E.03105
G1 X17.817 Y123.092 E.03105
G1 X18.603 Y122.489 E.03105
G1 X19.518 Y122.11 E.03105
G1 X20.49 Y121.982 E.03073
M204 S1000
G1 X20.5 Y122.361 F10800
M204 S800
;TYPE:External perimeter
G1 F1200
G1 X21.383 Y122.478 E.02794
G1 X22.207 Y122.819 E.02794
G1 X22.914 Y123.361 E.02794
G1 X23.456 Y124.068 E.02794
G1 X23.797 Y124.892 E.02794
G1 X23.914 Y125.775 E.02794
G1 X23.797 Y126.658 E.02794
G1 X23.488 Y127.406 E.02537
G1 X23.456 Y127.482 E.00257
G1 X22.914 Y128.189 E.02794
G1 X22.207 Y128.731 E.02794
G1 X21.383 Y129.072 E.02794
G1 X20.5 Y129.189 E.02794
G1 X19.617 Y129.072 E.02794
G1 X19.205 Y128.902 E.01397
G1 X18.793 Y128.731 E.01397
G1 X18.086 Y128.189 E.02794
G1 X17.544 Y127.482 E.02794
G1 X17.203 Y126.658 E.02794
G1 X17.086 Y125.775 E.02794
G1 X17.203 Y124.892 E.02794
G1 X17.544 Y124.068 E.02794
G1 X18.086 Y123.361 E.02794
G1 X18.793 Y122.819 E.02794
G1 X19.617 Y122.478 E.02794
G1 X20.441 Y122.369 E.02606
M204 S1000
G1 X20.7 Y122.015 F10800
;WIPE_START
G1 F8640
G1 X21.383 Y122.478 E-.21917
G1 X22.207 Y122.819 E-.20576
G1 X22.914 Y123.361 E-.20576
G1 X23.456 Y124.068 E-.20576
G1 X23.644 Y124.523 E-.11355
;WIPE_END
G1 E-.05 F2100
G1 Z.4 F720
G1 X161.435 Y116.52 F10800
G1 Z.2 F720
G1 E1 F2100
M204 S800
;TYPE:Perimeter
G1 F1200
G1 X161.557 Y115.489 E.03256
G1 X161.936 Y114.574 E.03105
G1 X162.539 Y113.789 E.03105
G1 X163.325 Y113.186 E.03105
G1 X164.24 Y112.807 E.03105
G1 X165.222 Y112.677 E.03105
G1 X166.204 Y112.807 E.03105
G1 X167.119 Y113.186 E.03105
G1 X167.905 Y113.789 E.03105
G1 X168.508 Y114.574 E.03105
G1 X168.887 Y115.489 E.03105
G1 X169.016 Y116.471 E.03105
G1 X168.887 Y117.453 E.03105
G1 X168.558 Y118.247 E.02693
G1 X168.508 Y118.368 E.00412
G1 X167.905 Y119.154 E.03105
G1 X167.119 Y119.757 E.03105
G1 X166.204 Y120.136 E.03105
G1 X165.222 Y120.265 E.03105
G1 X164.24 Y120.136 E.03105
G1 X163.325 Y119.757 E.03105
G1 X162.539 Y119.154 E.03105
G1 X161.936 Y118.368 E.03105
G1 X161.557 Y117.453 E.03105
G1 X161.442 Y116.58 E.02762
M204 S1000
G1 X161.808 Y116.471 F10800
M204 S800
;TYPE:External perimeter
G1 F1200
G1 X161.925 Y115.588 E.02794
G1 X162.266 Y114.764 E.02794
G1 X162.808 Y114.058 E.02794
G1 X163.515 Y113.515 E.02794
G1 X164.338 Y113.174 E.02794
G1 X165.222 Y113.058 E.02794
G1 X166.105 Y113.174 E.02794
G1 X166.929 Y113.515 E.02794
G1 X167.636 Y114.058 E.02794
G1 X168.178 Y114.764 E.02794
G1 X168.519 Y115.588 E.02794
G1 X168.635 Y116.471 E.02794
G1 X168.519 Y117.355 E.02794
G1 X168.209 Y118.102 E.02537
G1 X168.178 Y118.178 E.00257
G1 X167.636 Y118.885 E.02794
G1 X166.929 Y119.427 E.02794
G1 X166.105 Y119.768 E.02794
G1 X165.222 Y119.885 E.02794
G1 X164.338 Y119.768 E.02794
G1 X163.515 Y119.427 E.02794
G1 X162.808 Y118.885 E.02794
G1 X162.266 Y118.178 E.02794
G1 X161.925 Y117.355 E.02794
G1 X161.816 Y116.531 E.02606
M204 S1000
G1 X161.462 Y116.271 F10800
;WIPE_START
G1 F8640
G1 X161.925 Y115.588 E-.21917
G1 X162.266 Y114.764 E-.20576
G1 X162.808 Y114.058 E-.20576
G1 X163.515 Y113.515 E-.20576
G1 X163.969 Y113.327 E-.11355
;WIPE_END
G1 E-.05 F2100
G1 Z.4 F720
G1 X164.289 Y97.2 F10800
G1 Z.2 F720
G1 E1 F2100
M204 S800
;TYPE:Perimeter
G1 F1200
G1 X163.325 Y96.814 E.03256
G1 X162.539 Y96.211 E.03105
G1 X161.936 Y95.426 E.03105
G1 X161.557 Y94.511 E.03105
G1 X161.428 Y93.529 E.03105
G1 X161.557 Y92.547 E.03105
G1 X161.936 Y91.632 E.03105
G1 X162.539 Y90.846 E.03105
G1 X163.325 Y90.243 E.03105
G1 X164.24 Y89.864 E.03105
G1 X165.222 Y89.735 E.03105
G1 X166.204 Y89.864 E.03105
G1 X167.119 Y90.243 E.03105
G1 X167.905 Y90.846 E.03105
G1 X168.508 Y91.632 E.03105
G1 X168.887 Y92.547 E.03105
G1 X169.016 Y93.529 E.03105
G1 X168.887 Y94.511 E.03105
G1 X168.508 Y95.426 E.03105
G1 X167.905 Y96.211 E.03105
G1 X167.119 Y96.814 E.03105
G1 X166.204 Y97.193 E.03105
G1 X165.222 Y97.323 E.03105
G1 X164.349 Y97.208 E.02762
M204 S1000
G1 X164.338 Y96.826 F10800
M204 S800
;TYPE:External perimeter
G1 F1200
G1 X163.515 Y96.485 E.02794
G1 X162.808 Y95.942 E.02794
G1 X162.266 Y95.236 E.02794
G1 X161.925 Y94.412 E.02794
G1 X161.808 Y93.529 E.02794
G1 X161.925 Y92.645 E.02794
G1 X162.266 Y91.822 E.02794
G1 X162.808 Y91.115 E.02794
G1 X163.515 Y90.573 E.02794
G1 X164.338 Y90.232 E.02794
G1 X165.222 Y90.115 E.02794
G1 X166.105 Y90.232 E.02794
G1 X166.929 Y90.573 E.02794
G1 X167.636 Y91.115 E.02794
G1 X168.178 Y91.822 E.02794
G1 X168.519 Y92.645 E.02794
G1 X168.635 Y93.529 E.02794
G1 X168.519 Y94.412 E.02794
G1 X168.178 Y95.236 E.02794
G1 X167.636 Y95.942 E.02794
G1 X166.929 Y96.485 E.02794
G1 X166.105 Y96.826 E.02794
G1 X165.222 Y96.942 E.02794
G1 X164.398 Y96.834 E.02606
M204 S1000
G1 X164.056 Y97.109 F10800
;WIPE_START
G1 F8640
G1 X163.515 Y96.485 E-.21917
G1 X162.808 Y95.942 E-.20576
G1 X162.266 Y95.236 E-.20576
G1 X161.925 Y94.412 E-.20576
G1 X161.861 Y93.925 E-.11355
;WIPE_END
G1 E-.05 F2100
G1 Z.4 F720
G1 X208.829 Y104.067 F10800
G1 Z.2 F720
G1 E1 F2100
M204 S800
;TYPE:Perimeter
G1 F1200
G1 X209.214 Y103.103 E.03256
G1 X209.817 Y102.317 E.03105
G1 X210.603 Y101.714 E.03105
G1 X211.518 Y101.335 E.03105
G1 X212.5 Y101.206 E.03105
G1 X213.482 Y101.335 E.03105
G1 X214.397 Y101.714 E.03105
G1 X215.183 Y102.317 E.03105
G1 X215.786 Y103.103 E.03105
G1 X216.165 Y104.018 E.03105
G1 X216.294 Y105 E.03105
G1 X216.165 Y105.982 E.03105
G1 X215.786 Y106.897 E.03105
G1 X215.183 Y107.683 E.03105
G1 X214.397 Y108.286 E.03105
G1 X213.482 Y108.665 E.03105
G1 X212.5 Y108.794 E.03105
G1 X211.518 Y108.665 E.03105
G1 X210.603 Y108.286 E.03105
G1 X209.817 Y107.683 E.03105
G1 X209.214 Y106.897 E.03105
G1 X208.835 Y105.982 E.03105
G1 X208.706 Y105 E.03105
G1 X208.821 Y104.127 E.02762
M204 S1000
G1 X209.203 Y104.117 F10800
M204 S800
